X: 1
T: Bit Scioty
B: Portland Collection v.2 p.23
R: reel
Z: 2019 John Chambers <jc:trillian.mit.edu>
M: C|
L: 1/8
K: G
"A"[|] GE |\
"G"DEGA BdBA | GBAG "C"EFGE | "G"DEGA BdBA | GBAG "C"E3D- |
"G"DEG BAGA | "C"B2e2 efed | "G"BGB "D"AGEG | "G"AG- GA G2 :|
"B"|: ef |\
"G"g2g2 gabg | "D"a2b a2a2- | abag fdBd | "Em"e3f e2ef |
"Em"g2f2 edBd | "C"e3f e2ef | "D"gfed BAGD | "G"EG- GA G2 :|
